X:492
T:Dashing White Sergeant, The #2
C:Joe Buchanan's Scottish Tome - Page 174.1
I:174 1
Z:Carl Allison
R:Polka
L:1/8
M:4/4
K:D
(F/E/) | "D"DD/E/ D/E/F/G/ | "D"A/G/A/B/ A(f/d/) | "D"dB "Bm"AF | "E7"BE "A7"E/G/F/E/ |
"D"DD/E/ D/E/F/G/ | "D"A/^G/A/B/ Af | "E7"ed cB | "A7"A(A/B/) A/G/F/E/ |
"D"DD/E/ D/E/F/G/ | "D"A/^G/A/B/ Af/e/ | "D"dB "Bm"AF | "E7"BE "A7"E/G/F/E/ |
"D"DD/E/ D/E/F/G/ | "D"A/^G/A/B/ Af | "D"ed "Bm"cB | "A7"A2 A |]
E | "A"AA/B/ cc/d/ | "A"e/f/e/c/ A>A | "Bm"BB/c/ dd/e/ | "Bm"f/g/f/d/ BB |
"A"cA/A/ "Bm"dA/A/ | "A/C#"eA/A/ "D"fA/A/ | "Em"gf ed | "A7"c/d/B/c/ AG |
"D"Fd d/c/d/e/ | "D"dA "Bm"A2 | "Em"Be e/d/e/f/ | "Em"eB B2 |
"D"Ad d/c/d/e/ | "D"fd "Bm"d/c/d/e/ | "Em"f z a z | "D"d(c/B/) "A7"A/G/F/E/ |]

